src/assets/icons/pets.svg

<svg width="24" height="24" viewBox="0 0 24 24" fill="none" xmlns="http://www.w3.org/2000/svg">
<path fill-rule="evenodd" clip-rule="evenodd" d="M9.47127 8.1426C10.4755 8.1426 11.2897 7.33222 11.2897 6.33262V6.29037C11.2897 5.29084 10.4755 4.48047 9.47127 4.48047C8.4671 4.48047 7.6529 5.29084 7.6529 6.29037V6.33262C7.6529 7.33215 8.4671 8.1426 9.47127 8.1426ZM14.9266 8.1426C15.9308 8.1426 16.745 7.33222 16.745 6.33262V6.29037C16.745 5.29084 15.9308 4.48047 14.9266 4.48047C13.9224 4.48047 13.1082 5.29084 13.1082 6.29037V6.33262C13.1082 7.33215 13.9224 8.1426 14.9266 8.1426ZM13.8339 10.4925C14.0277 10.6391 14.2006 10.8112 14.348 11.0041L17.6518 15.3263C18.5548 16.5076 18.3246 18.1939 17.1377 19.0927C16.6676 19.4486 16.0933 19.6415 15.5027 19.6415H8.89528C7.4039 19.6415 6.19483 18.4381 6.19483 16.9537C6.19483 16.3658 6.38849 15.7941 6.74604 15.3263L10.0499 11.0041C10.9529 9.82275 12.647 9.5937 13.8339 10.4925ZM18.5635 9.00525C17.5592 9.00525 16.7451 9.81562 16.7451 10.8151V10.8574C16.7451 11.857 17.5592 12.6673 18.5635 12.6673C19.5678 12.6673 20.382 11.857 20.382 10.8574V10.8151C20.382 9.81562 19.5678 9.00525 18.5635 9.00525ZM7.65252 10.8151V10.8574C7.65252 11.857 6.83833 12.6673 5.83408 12.6673C4.82975 12.6673 4.01562 11.857 4.01562 10.8574V10.8151C4.01562 9.81562 4.82975 9.00525 5.83408 9.00525C6.83833 9.00525 7.65252 9.81562 7.65252 10.8151Z" fill="black"/>
</svg>

<svg xmlns="http://www.w3.org/2000/svg" width="24" height="24" fill="none"><path fill="#000" fill-rule="evenodd" d="M9.471 8.143c1.005 0 1.819-.81 1.819-1.81V6.29c0-1-.814-1.81-1.819-1.81s-1.818.81-1.818 1.81v.043c0 1 .814 1.81 1.818 1.81m5.456 0c1.004 0 1.818-.81 1.818-1.81V6.29c0-1-.814-1.81-1.818-1.81s-1.819.81-1.819 1.81v.043c0 1 .814 1.81 1.819 1.81m-1.093 2.35q.292.22.514.511l3.304 4.322a2.68 2.68 0 0 1-.514 3.767 2.7 2.7 0 0 1-1.635.549H8.895a2.694 2.694 0 0 1-2.7-2.688c0-.588.193-1.16.551-1.628l3.304-4.322a2.71 2.71 0 0 1 3.784-.511m4.73-1.488c-1.005 0-1.819.81-1.819 1.81v.042c0 1 .814 1.81 1.819 1.81s1.818-.81 1.818-1.81v-.042c0-1-.814-1.81-1.819-1.81m-10.911 1.81v.042c0 1-.815 1.81-1.819 1.81a1.814 1.814 0 0 1-1.818-1.81v-.042c0-1 .814-1.81 1.818-1.81s1.819.81 1.819 1.81" clip-rule="evenodd"/></svg>
